X: 1453
T: Nerdesin Nerde Acep
C: Leylâ Saz
O: Turkey
F: http://compmusic.upf.edu/node/140
N: hicazkar--sarki--aksak--nerdesin--leyla_saz
N: makam= hicazkar
N: form= sarki
N: usul= aksak = 9/8
M: 9/8
L: 1/16
K: C _1/4B _7/8e _7/8A ^f
Q: 1/4=132
%%MIDI tuningsystem comma53
gagf fgfe e2de gfed c2 | de degf eded cBcd efg2  | 
w:  ARANAĞME  |   | 
gagf fgfe e2de gfed c2 | Bc dedc cBBA AGG4z2  | 
w:   |   | 
gagf fgfe e2de gfed c2 | de degf eded cBcd efg2  | 
w:  ARANAĞME  |   | 
gagf fgfe e2de gfed c2 | Bc dedc cBBA AGG4z2  | 
w:   |   | 
d4 f3g g4 z6 | _b=a gfe3/2d/ efg4z6  | \
w:  *  Ner de sin   |  ner *  *  *  de  *  a *  cep   | 
z2d4f2 e3d c4 g2 | 
w:  gam la  bı *  rak  | 
f2 g2=a_b agg4g2 f2e2  | d4 f3g g4 z6 | \
w:  tın  *  da  *  be *  ni  SAZ  |  *  Ner de sin   | 
_b=a gfe3/2d/ efg4z6  | 
w:  ner *  *  *  de  *  a *  cep   | 
z2g4_b2 =a3g f2g2 a2 | f3efe edd4de cd_1/4e=f  | 
w:  gam la  bı *  rak  |  tın  *  da  *  be *  ni  SAZ  | 
g4 c2g2 g2fg a4 gf | ed c2d2 _1/4e2=f4g4f_7/8e  | \
w:  *  A ra dım  *  *  çok   |  *  *  *  a ra dım  ah   | 
dcB2 c2d2 d4 e4 de | 
w:  *  *  *  a  gö züm  nû  | 
=f3gfe edd4de cd_2/4ef  | g4 c2g2 g2fg a4 gf | 
w:  *  *  ru  *  se *  ni  SAZ  |  *  A ra dım  *  *  çok   | 
ed c2d2 _1/4e2=f4g4f_7/8e  | dcB2 c2BA G4 fgba gf | 
w:  *  *  *  a ra dım  ah   |  *  *  *  a  gö *  züm  nû  | 
ed cdBA AGG4de dcBc  | d4 c2d2 d4 d2_1/4e2 =f2 | 
w:  *  *  *  *  ru  *  se *  ni  SAZ  |  *  Yi ne  gör mek   | 
g3dd2 dcc_B Bcd4(3=fed  | d4 _B2_7/8cd c2B_1/4A B4 c2 | 
w:  *  *  i çin  *  ol *  *  *  neş  |  *  ve li  *  vec *  *  hi  | 
_B3_1/4AG2 B2B_7/8A2GG4GF  | F4 G2c2 BAAG G6 | \
w:  *  *  ha  se ni   |  *  Yi ne  gör *  *  *  mek   | 
c2 d4 =f2e3dc4d2  | 
w:  i çin  *  ol *  neş  | 
c4 d2e2 e3d _b=ag2 a2 | =f3gfe edd4de cd_1/4ef  | 
w:  *  ve li  vec *  hi  |  *  *  ha  *  se *  ni  SAZ  | 
g4 c2g2 g2fg a4 gf | ed c2d2 _1/4e2=f4g4f_7/8e  | \
w:  *  A ra dım  *  *  çok   |  *  *  *  a ra dım  ah   | 
dcB2 c2d2 d4 e4 de | 
w:  *  *  *  a  gö züm  nû  | 
=f3gfe edd4de cd_2/4ef  | g4 c2g2 g2fg a4 gf | 
w:  *  *  ru  *  se *  ni  SAZ  |  *  A ra dım  *  *  çok   | 
ed c2d2 _1/4e2=f4g4f_7/8e  | dcB2 c2BA G4 fgba gf | 
w:  *  *  *  a ra dım  ah   |  *  *  *  a  gö *  züm  nû  | 
ed cdBA AGG4|
w:  *  *  *  *  ru  *  se *  ni   | 


